packages/kaspersky-hexa-ui-icons/src/iconsSVGs/16/MacOS2.svg

<svg width="16" height="16" viewBox="0 0 16 16" fill="none" xmlns="http://www.w3.org/2000/svg">
<path fill-rule="evenodd" clip-rule="evenodd" d="M9.89225 4.59813V5.30345H10.634V2.39019C10.634 2.17553 10.5965 1.99153 10.5214 1.81776C10.4462 1.64398 10.343 1.50088 10.2021 1.37821C10.0613 1.25555 9.90164 1.16355 9.70446 1.10222C9.50727 1.04089 9.3007 1 9.05657 1C8.8406 1 8.63403 1.03067 8.44624 1.10222C8.25845 1.16355 8.09882 1.25555 7.95798 1.37821C7.81713 1.50088 7.71384 1.63376 7.62934 1.79731C7.54483 1.96086 7.50727 2.13464 7.49788 2.31863H8.23028C8.24906 2.22664 8.27722 2.14486 8.32417 2.07331C8.37112 2.00175 8.42746 1.9302 8.49319 1.87909C8.55891 1.82798 8.64342 1.78709 8.73732 1.75643C8.83122 1.72576 8.92511 1.71554 9.0284 1.71554C9.29131 1.71554 9.48849 1.77687 9.63873 1.90975C9.77957 2.03242 9.85469 2.22664 9.85469 2.47196V2.79907L8.80305 2.8604C8.31478 2.89106 7.94859 3.01373 7.69506 3.22839C7.44154 3.44305 7.31009 3.72926 7.31009 4.10748C7.31009 4.30169 7.33826 4.47547 7.40398 4.6288C7.46971 4.78213 7.56361 4.91501 7.67629 5.02745C7.78896 5.1399 7.92981 5.22167 8.08943 5.283C8.24906 5.34433 8.42746 5.375 8.62464 5.375C8.7561 5.375 8.88755 5.35456 9.00962 5.32389C9.13169 5.29322 9.25375 5.24211 9.35704 5.17056C9.46032 5.10923 9.55422 5.02745 9.64812 4.93546C9.74201 4.81279 9.81713 4.71057 9.87347 4.59813H9.89225ZM9.573 4.39369C9.4791 4.47547 9.37582 4.54702 9.25375 4.59813C9.13169 4.64924 8.99084 4.66969 8.85 4.66969C8.62464 4.66969 8.44624 4.61857 8.31478 4.50613C8.18333 4.39369 8.1176 4.25059 8.1176 4.06659C8.1176 3.88259 8.18333 3.72926 8.32417 3.62705C8.45563 3.52483 8.6622 3.46349 8.9345 3.44305L9.88286 3.3715V3.6986C9.88286 3.84171 9.85469 3.96437 9.80774 4.08703C9.73263 4.2097 9.6669 4.31192 9.573 4.39369Z" fill="black"/>
<path d="M12.5399 2.11419C12.6338 1.99153 12.7371 1.88931 12.8685 1.81776C13 1.7462 13.1408 1.71554 13.3005 1.71554C13.4319 1.71554 13.554 1.73598 13.6573 1.77687C13.7606 1.81776 13.8545 1.86887 13.939 1.94042C14.0141 2.01198 14.0798 2.09375 14.1268 2.19597C14.1737 2.29819 14.2113 2.40041 14.23 2.51285H14.9718C14.9531 2.30841 14.9061 2.11419 14.8216 1.9302C14.7371 1.7462 14.6244 1.59287 14.4836 1.44977C14.3427 1.31688 14.1643 1.20444 13.9671 1.12266C13.77 1.04089 13.5446 1 13.2911 1C13.0188 1 12.7653 1.05111 12.5399 1.15333C12.3146 1.25555 12.1268 1.39866 11.9671 1.59287C11.8075 1.78709 11.6854 2.01197 11.6009 2.27775C11.5164 2.54352 11.4695 2.83995 11.4695 3.17728C11.4695 3.5146 11.5164 3.82126 11.6009 4.08703C11.6854 4.3528 11.8169 4.58791 11.9765 4.77191C12.1361 4.9559 12.3333 5.09901 12.5587 5.20123C12.784 5.30345 13.0376 5.35456 13.3099 5.35456C13.5446 5.35456 13.7606 5.31367 13.9577 5.25234C14.1549 5.19101 14.3239 5.07856 14.4742 4.9559C14.615 4.82302 14.7371 4.66969 14.831 4.48569C14.9249 4.30169 14.9812 4.09726 15 3.88259H14.2582C14.2113 4.13814 14.108 4.32214 13.9484 4.45502C13.7887 4.58791 13.5822 4.64924 13.3286 4.64924C13.169 4.64924 13.0282 4.61858 12.8967 4.54702C12.7653 4.48569 12.6526 4.38347 12.5681 4.26081C12.4742 4.13814 12.4085 3.98481 12.3521 3.80082C12.3052 3.61682 12.277 3.41238 12.277 3.1875C12.277 2.96262 12.3052 2.7684 12.3521 2.5844C12.3803 2.39019 12.446 2.23686 12.5399 2.11419Z" fill="black"/>
<path d="M6.49296 5.30263V2.40981C6.49296 2.19515 6.46479 2.00093 6.39907 1.83738C6.33334 1.67383 6.25822 1.5205 6.14554 1.39784C6.03287 1.27517 5.90141 1.18318 5.74179 1.11162C5.58216 1.04007 5.41315 1.0094 5.21597 1.0094C5.07512 1.0094 4.94367 1.02985 4.8216 1.07074C4.69953 1.11162 4.57747 1.16273 4.47418 1.23429C4.37089 1.30584 4.277 1.39784 4.19249 1.48984C4.10798 1.58183 4.04226 1.7045 3.99531 1.83738H3.97653C3.90141 1.57161 3.76057 1.36717 3.57277 1.22407C3.38498 1.08096 3.15024 1.0094 2.87794 1.0094C2.75587 1.0094 2.6338 1.02985 2.51174 1.06051C2.39906 1.09118 2.29578 1.14229 2.19249 1.21384C2.09859 1.2854 2.01409 1.35695 1.93897 1.45917C1.86385 1.55117 1.80751 1.66361 1.76056 1.77605H1.74179V1.06051H1V5.31285H1.7324V2.70625C1.7324 2.60491 1.77062 2.50356 1.80543 2.41129C1.81626 2.38257 1.82677 2.35473 1.83568 2.32804C1.87324 2.2156 1.92958 2.11338 2.0047 2.02138C2.07981 1.9396 2.16432 1.86805 2.26761 1.81694C2.37089 1.76583 2.48357 1.74539 2.59625 1.74539C2.70892 1.74539 2.81221 1.76583 2.90611 1.80672C3 1.8476 3.07512 1.89871 3.14085 1.97027C3.20657 2.04182 3.25352 2.1236 3.29108 2.22582C3.32864 2.32804 3.34742 2.44048 3.34742 2.55292V5.31285H4.11737V2.67558C4.11737 2.5427 4.13615 2.40981 4.1831 2.29737C4.22066 2.18493 4.277 2.08271 4.35212 2.00093C4.42723 1.91916 4.51174 1.85783 4.60564 1.80672C4.70892 1.76583 4.81221 1.73516 4.93428 1.73516C5.17841 1.73516 5.3662 1.81694 5.49766 1.96005C5.62911 2.11338 5.69484 2.32804 5.69484 2.60403V5.29241L6.49296 5.30263Z" fill="black"/>
<path fill-rule="evenodd" clip-rule="evenodd" d="M4.5 7.125C2.35025 7.125 1 8.64358 1 11.0625C1 13.4814 2.35025 15 4.5 15C6.64975 15 8 13.4814 8 11.0625C7.99408 8.64358 6.64975 7.125 4.5 7.125ZM4.5 14.0276C3.02538 14.0276 2.10152 12.8812 2.10152 11.0625C2.10152 9.23781 3.02538 8.09137 4.5 8.09137C5.9687 8.09137 6.89848 9.23781 6.89848 11.0625C6.89255 12.8812 5.9687 14.0276 4.5 14.0276Z" fill="black"/>
<path d="M12.6403 10.597L11.7689 10.3927C10.7068 10.1404 10.2679 9.81007 10.2679 9.25744C10.2679 8.55463 10.9612 8.06808 11.9661 8.06808C12.9711 8.06808 13.6516 8.54863 13.7279 9.32952H14.8664C14.8219 8.03204 13.658 7.125 11.9916 7.125C10.287 7.125 9.08489 8.02603 9.08489 9.3175C9.08489 10.3687 9.75909 11.0114 11.2538 11.3598L12.2905 11.6001C13.3527 11.8524 13.8106 12.2248 13.8106 12.8375C13.8106 13.5463 13.0537 14.0629 12.0043 14.0629C10.9103 14.0629 10.1089 13.5463 10.0199 12.7594H8.875C8.95768 14.129 10.1598 15 11.9216 15C13.8106 15 15 14.117 15 12.6994C14.9809 11.5941 14.3004 10.9754 12.6403 10.597Z" fill="black"/>
</svg>

<svg xmlns="http://www.w3.org/2000/svg" width="16" height="16" fill="none" viewBox="0 0 16 16"><path fill="#000" fill-rule="evenodd" d="M9.8923 4.5981v.7054h.7417V2.3901c0-.2147-.0375-.3987-.1126-.5724-.0752-.1738-.1784-.317-.3193-.4396-.1408-.1227-.3005-.2146-.4976-.276C9.5073 1.041 9.3007 1 9.0565 1c-.2159 0-.4225.0307-.6103.1022a1.385 1.385 0 0 0-.4882.276 1.37 1.37 0 0 0-.3287.4191c-.0845.1636-.122.3373-.1314.5213h.7324c.0188-.092.047-.1737.0939-.2453.047-.0716.1033-.1431.169-.1942s.1502-.092.2441-.1227c.094-.0306.1878-.0409.2911-.0409.263 0 .46.0614.6103.1943.1409.1226.216.3168.216.5622v.327l-1.0516.0614c-.4883.0307-.8545.1533-1.108.368s-.385.5009-.385.879c0 .1943.0282.368.0939.5214a1.27 1.27 0 0 0 .2723.3986c.1127.1125.2535.1943.4131.2556q.2395.092.5352.092c.1315 0 .263-.0204.385-.0511s.2441-.0818.3474-.1533c.1033-.0614.1972-.1432.2911-.2351.094-.1227.169-.225.2254-.3374zm-.3193-.2044c-.0939.0818-.1972.1533-.3193.2044s-.2629.0716-.4037.0716c-.2254 0-.4038-.0511-.5352-.1636s-.1972-.2555-.1972-.4395.0657-.3373.2066-.4396c.1314-.1022.338-.1635.6103-.184l.9484-.0715v.3271c0 .1431-.0282.2658-.0752.3884-.075.1227-.1408.225-.2347.3067" clip-rule="evenodd"/><path fill="#000" d="M12.54 2.114c.094-.123.197-.225.329-.296s.272-.102.432-.102c.131 0 .254.021.357.061s.197.092.282.164c.075.072.141.153.188.256s.085.204.103.317h.742c-.019-.204-.066-.399-.15-.583s-.197-.337-.338-.48c-.141-.133-.319-.245-.516-.327Q13.671 1 13.291 1c-.272 0-.526.051-.751.153a1.56 1.56 0 0 0-.573.44c-.16.194-.282.419-.366.685s-.131.562-.131.9.047.644.131.91c.085.266.216.501.376.685s.357.327.582.429.479.153.751.153c.235 0 .451-.041.648-.102s.366-.174.517-.296c.141-.133.263-.286.357-.47s.15-.388.169-.603h-.742c-.047.256-.15.44-.31.572s-.366.194-.62.194c-.16 0-.3-.031-.432-.102-.131-.061-.244-.163-.329-.286-.094-.123-.16-.276-.216-.46a2.48 2.48 0 0 1-.075-.613c0-.225.028-.419.075-.603.028-.194.094-.347.188-.47M6.493 5.303V2.41c0-.215-.028-.409-.094-.572-.066-.164-.141-.317-.253-.44s-.244-.215-.404-.286-.329-.102-.526-.102q-.211 0-.394.061c-.122.041-.244.092-.347.164s-.197.164-.282.256-.15.215-.197.348h-.019c-.075-.266-.216-.47-.404-.613s-.423-.215-.695-.215c-.122 0-.244.02-.366.051-.113.031-.216.082-.319.153-.094.072-.178.143-.253.245-.075.092-.131.204-.178.317h-.019v-.715H1v4.251h.732V2.706c0-.101.038-.203.073-.295.011-.029.021-.057.03-.083a.96.96 0 0 1 .169-.307c.075-.082.16-.153.263-.204s.216-.071.329-.071q.169 0 .31.061c.094.041.169.092.235.164s.113.153.15.256a.96.96 0 0 1 .056.327v2.76h.77V2.676c0-.133.019-.266.066-.378.038-.112.094-.215.169-.296s.16-.143.254-.194c.103-.041.207-.071.329-.071.244 0 .432.082.563.225q.197.23.197.644v2.688z"/><path fill="#000" fill-rule="evenodd" d="M4.5 7.125c-2.1497 0-3.5 1.5186-3.5 3.9375S2.3503 15 4.5 15 8 13.4814 8 11.0625C7.994 8.6435 6.6498 7.125 4.5 7.125m0 6.9026c-1.4746 0-2.3985-1.1464-2.3985-2.9651 0-1.8247.9239-2.9711 2.3985-2.9711 1.4687 0 2.3985 1.1464 2.3985 2.9711-.006 1.8187-.9298 2.9651-2.3985 2.9651" clip-rule="evenodd"/><path fill="#000" d="m12.6403 10.597-.8714-.2043c-1.0621-.2523-1.501-.5826-1.501-1.1353 0-.7028.6933-1.1893 1.6982-1.1893s1.6855.4805 1.7618 1.2614h1.1385C14.8219 8.032 13.658 7.125 11.9916 7.125c-1.7046 0-2.9067.901-2.9067 2.1925 0 1.0512.6742 1.6939 2.1689 2.0423l1.0367.2403c1.0622.2523 1.5201.6247 1.5201 1.2374 0 .7088-.7569 1.2254-1.8063 1.2254-1.094 0-1.8954-.5166-1.9844-1.3035H8.875C8.9577 14.129 10.1598 15 11.9216 15 13.8106 15 15 14.117 15 12.6994c-.0191-1.1053-.6996-1.724-2.3597-2.1024"/></svg>
